dist/img/business.svg

<svg width="48" height="48" viewBox="0 0 48 48" fill="none" xmlns="http://www.w3.org/2000/svg">
<path d="M11.5227 36.6826H1.84229C1.06566 36.6826 0.436035 37.3122 0.436035 38.0889V46.5939C0.436035 47.3705 1.06566 48.0001 1.84229 48.0001H12.9291V38.0889C12.929 37.3122 12.2994 36.6826 11.5227 36.6826Z" fill="#5A73EF"/>
<path d="M25.4222 28.8076H17.1479C16.3713 28.8076 15.7417 29.4372 15.7417 30.2139V48.0001H26.8285V30.2139C26.8285 29.4372 26.1989 28.8076 25.4222 28.8076Z" fill="#5A73EF"/>
<path d="M44.7933 7.59469L47.6274 4.51875C48.0062 4.10813 48.1055 3.51281 47.8815 3.00187C47.6574 2.49 47.1521 2.16 46.5933 2.16H37.5278V1.40625C37.5278 0.63 36.8987 0 36.1216 0C35.3453 0 34.7153 0.63 34.7153 1.40625V17.8125H31.0469C30.2702 17.8125 29.6406 18.4421 29.6406 19.2188V48H40.9665C41.7437 48 42.3727 47.37 42.3727 46.5938V19.2188C42.3727 18.4425 41.7437 17.8125 40.9665 17.8125H37.5278V12.7809H46.5933C47.1624 12.7809 47.6752 12.4378 47.8927 11.9119C48.1102 11.3859 47.9893 10.7803 47.5862 10.3791L44.7933 7.59469Z" fill="#5A73EF"/>
<path d="M23.8642 12.0733C24.2093 12.7692 25.0528 13.0534 25.7487 12.7084C26.4445 12.3633 26.7289 11.5196 26.3838 10.8238C23.8344 5.68278 24.0923 6.20103 24.0552 6.13119C23.791 5.63188 23.2472 5.33038 22.6681 5.39038C22.6642 5.39075 22.6601 5.3916 22.6561 5.39207C22.5411 5.405 22.8483 5.34472 17.522 6.4656C16.7619 6.62553 16.2756 7.37132 16.4354 8.13135C16.5748 8.79369 17.1592 9.24828 17.8101 9.24828C18.0058 9.24828 17.8797 9.2645 20.353 8.744C18.5089 12.3637 16.1088 15.6624 13.1942 18.5772C9.62204 22.1494 5.47173 24.95 0.858575 26.9011C0.143262 27.2038 -0.191332 28.0288 0.1112 28.7441C0.413918 29.46 1.23939 29.7938 1.95414 29.4915C6.90254 27.3986 11.3533 24.3956 15.1828 20.5659C18.304 17.4447 20.8758 13.9117 22.8528 10.0342L23.8642 12.0733Z" fill="#5A73EF"/>
</svg>

<svg xmlns="http://www.w3.org/2000/svg" fill="none" viewBox="0 0 48 48">
  <path fill="#5A73EF" d="M11.523 36.683h-9.68c-.777 0-1.407.63-1.407 1.406v8.505c0 .776.63 1.406 1.406 1.406H12.93V38.09c0-.777-.63-1.406-1.406-1.406ZM25.422 28.808h-8.274c-.777 0-1.406.63-1.406 1.406V48h11.086V30.214c0-.777-.63-1.406-1.406-1.406ZM44.793 7.595l2.834-3.076a1.405 1.405 0 0 0-1.034-2.359h-9.065v-.754a1.406 1.406 0 1 0-2.813 0v16.407h-3.668c-.777 0-1.406.63-1.406 1.406V48h11.326c.777 0 1.406-.63 1.406-1.406V19.219c0-.777-.63-1.407-1.406-1.407h-3.44v-5.031h9.066a1.406 1.406 0 0 0 .993-2.402l-2.793-2.784ZM23.864 12.073a1.406 1.406 0 1 0 2.52-1.25c-2.55-5.14-2.292-4.622-2.329-4.692-.264-.5-.808-.8-1.387-.74l-.012.001c-.115.013.192-.047-5.134 1.074a1.406 1.406 0 0 0 .288 2.782c.196 0 .07.017 2.543-.504a38.756 38.756 0 0 1-7.159 9.833A38.687 38.687 0 0 1 .86 26.901a1.406 1.406 0 0 0 1.095 2.59 41.484 41.484 0 0 0 13.229-8.925 41.553 41.553 0 0 0 7.67-10.532l1.011 2.04Z"/>
</svg>
